svg/rewind_15.svg

<svg xmlns="http://www.w3.org/2000/svg" viewBox="0 0 24 24"><path d="M12.5 3c4.65 0 8.58 3.03 9.97 7.22L20.1 11c-1.05-3.19-4.06-5.5-7.6-5.5-1.96 0-3.73.72-5.12 1.88L10 10H3V3l2.6 2.6C7.45 4 9.85 3 12.5 3M10 12v10H8v-8H6v-2zm2 0h6v2h-4v2h2a2 2 0 0 1 2 2v2c0 1.11-.89 2-2 2h-4v-2h4v-2h-4z"/></svg>

<svg xmlns="http://www.w3.org/2000/svg" id="mdi-rewind-15" viewBox="0 0 24 24"><path d="M12.5 3C17.15 3 21.08 6.03 22.47 10.22L20.1 11C19.05 7.81 16.04 5.5 12.5 5.5C10.54 5.5 8.77 6.22 7.38 7.38L10 10H3V3L5.6 5.6C7.45 4 9.85 3 12.5 3M10 12V22H8V14H6V12H10M12 12H18V14H14V16H16C17.11 16 18 16.9 18 18V20C18 21.11 17.11 22 16 22H12V20H16V18H12V12Z" /></svg>
